X:1
T:Pinckney Street
T:G minor                      Amos Pilsbury, 1799
T:Transcribed from  The United States Sacred Harmony, 1799.
T:Anonymous author, before 1783        887. 887.
%%score [ 1 2 3 4 ]
L:1/8
Q:1/4=120
M:4/4
K:Bb
V:1 treble nm="Tr." snm="Tr."
V:2 treble nm="C." snm="C."
V:3 treble-8 nm="T." snm="T."
V:4 bass nm="B." snm="B."
V:1
"_1. Who hath our re  –  port          be–lie–ved?  Shi      –     loh come         is      not          re–cei–ved,   Not        re – cei – ved  by   his  own,  Promised branch from root of \n2. Tell    me,  O   thou  fa   –  vored  na –tion,  What          is   thy           fond   ex   –  pec –ta –tion?   Some     fair  spreading lof – ty tree?   Let  not  worldly  pride    con –" [Bd]6 d2 | %1
 d4 (c2 B2) | (A3 B A2) G2 | F4 F4 || (G3 A B2) A2 | (B3 c d2) c2 | (B3 G A2) A2 | B4 B4 || B6 G2 | %9
 A4 d4 | (c3 B) A4 | G8 || d6 d2 | A6 A2 | (B3 c d2) d2 | %15
"_1. Jes   –   se,  David's offspring  sent           to bless ye,   Comes   too  meek – ly      to   be   known.\n2.–found thee, Among the low – ly plants around thee,  Mark     the  low  –  est,   that   is       he." d4 d4 || %16
 B6 G2 | A4 d4 | (d3 c B2) G2 | A4 A4 || (B3 c d2) d2 | (d2 B2) (c2 B2) | A4 (B2 A2) | G8 |] %24
V:2
"_3. Lo!  Mes–si – ah      un     –    re–spec–ted,  Man          of    griefs        de – spised,     re –jec –ted, Wounds his  form dis  –  fi  – gu –ring;  Marred his visage more   than \n4. No  de – ceit   his     mouth    had spoken,   Blame   –  less   he            no    laws        had  broken, Yet       was numbered with the  worst;   For  because  the Lord  would" G6 F2 | %1
 G4 D4 | (F3 G F2) E2 | D4 D4 || (G3 F G2) A2 | (B3 A G2) G2 | (F3 G A2) A2 | F4 F4 || [DF]6 D2 | %9
 F4 F4 | E4 D4 | D8 || G6 G2 | F6 F2 | D6 D2 | %15
"_3.    a  –   ny,    For  he  bears  the  sins           of  ma – ny,  All       our   sor – rows   car – ry – ing.\n4. grieve him,  We who saw    it     did         be–lieve him,  For       his   own   of – fen – ses  cursed." D4 D4 || %16
 z8 | z8 | z8 | z8 || F6 F2 | G4 (F2 E2) | D4 D4 | D8 |] %24
V:3
"_5. But while him our thoughts ac – cu – sed    He           for   us              a   –  lone      was  bruised,  Stric  –  ken, smit – ten for  our guilt,  With his stripes our wounds are\n6. Bles–sed  be   the   power    who  gave  us,   Free    –    ly   gave           his    Son       to     save  us,  Bles –  sed  the Son who freely came;  Ho – nor, blessing,  a    –    do  –" G6 A2 | %1
 B4 (A2 G2) | (c3 d c2) B2 | A4 A4 || (B3 A B2) c2 | d6 e2 | (f3 e d2) c2 | d4 d4 || (d3 c B2) d2 | %9
 c4 (B2 A2) | G4 F4 | G8 || G6 G2 | D6 D2 | B6 B2 | %15
"_5.  cu – red,    By  his  pains  our  peace      al – lu –red,  Pur – chased  with  the   blood  he  spilled.\n6. –ra – tion,   Ev–er,  from    the  whole    cre – a –tion,  Be          to    God  and    to      the  Lamb." (B2 A2) A4 || %16
 d6 B2 | c4 (B2 A2) | (G3 A B2) c2 | d4 d4 || d6 f2 | (g2 d2) (c2 B2) | A4 (G2 F2) | G8 |] %24
V:4
 G,6 [D,F,]2 | B,,4 (D,2 E,2) | F,6 G,2 | D,4 D,4 || (G,3 F, G,2) A,2 | B,6 G,2 | %6
 (D,3 E, F,2) F,2 | B,,4 B,,4 || D,6 G,2 | F,4 B,,4 | C,4 D,4 | G,,8 || G,6 B,,2 | F,6 F,2 | %14
 G,6 G,2 | D,4 D,4 || %16
"^Words are from a hymn, \nWho hath our report believed?\n by\nan unknown author, probably English, before 1782.  The text is a\nfree adaptation of Isaiah 53:1-6. In Pilsbury (1799), only the second \nstanza is presented; all six are shown here, starting with the first." G,6 G,2 | %17
 F,4 D,4 | %18
"^________________________________________________\nEdited by B. C. Johnston, 2018\n   1. Measure 2, \nBass\n: grace quarter-note following converted to normal quarter-note.\n   2. Measure 7, \nTreble\n: first three notes changed from B-A-G to B-G-A.\n   3. Measure 14, \nBass\n: First note changed from F to G.\n   4. Measure 21, \nTenor\n: grace eighth-note ignored, on E following first note.\n   5. Measure 22, Treble: last two notes changed from C-D to C-B." (G,3 F, E,2) C,2 | %19
 D,4 D,4 || D,6 D,2 | (G,2 D,2) (C,2 B,,2) | D,4 D,4 | G,,8 |] %24

